src/img/information.svg

<svg width="24" height="24" xmlns="http://www.w3.org/2000/svg">

 <g>
  <title>background</title>
  <rect fill="none" id="canvas_background" height="402" width="582" y="-1" x="-1"/>
 </g>
 <g>
  <title>Layer 1</title>
  <path fill="#005b82" id="svg_1" d="m11.5,1c-6.342,0 -11.5,5.158 -11.5,11.5s5.158,11.5 11.5,11.5c6.341,0 11.5,-5.158 11.5,-11.5s-5.159,-11.5 -11.5,-11.5zm-0.5,5c0.551,0 1,0.448 1,1c0,0.553 -0.449,1 -1,1c-0.553,0 -1,-0.447 -1,-1c0,-0.552 0.447,-1 1,-1zm3.5,14l-6,0c-0.276,0 -0.5,-0.224 -0.5,-0.5s0.224,-0.5 0.5,-0.5l2.5,0l0,-8l-1.5,0c-0.276,0 -0.5,-0.224 -0.5,-0.5s0.224,-0.5 0.5,-0.5l2,0c0.275,0 0.5,0.224 0.5,0.5l0,8.5l2.5,0c0.275,0 0.5,0.224 0.5,0.5s-0.225,0.5 -0.5,0.5z"/>
 </g>
</svg>

<svg width="24" height="24" xmlns="http://www.w3.org/2000/svg"><path fill="none" d="M-1-1h582v402H-1z"/><g><path fill="#005b82" d="M11.5 1C5.158 1 0 6.158 0 12.5S5.158 24 11.5 24C17.841 24 23 18.842 23 12.5S17.841 1 11.5 1zM11 6a1.001 1.001 0 11-.002 2.002A1.001 1.001 0 0111 6zm3.5 14h-6a.5.5 0 010-1H11v-8H9.5a.5.5 0 010-1h2a.5.5 0 01.5.5V19h2.5a.5.5 0 010 1z"/></g></svg>
